actions/toolbar/office-chart-line-percentage.svg

<?xml version="1.0" encoding="UTF-8" standalone="no"?>
<!-- Created with Inkscape (http://www.inkscape.org/) -->

<svg
   xmlns:dc="http://purl.org/dc/elements/1.1/"
   xmlns:cc="http://creativecommons.org/ns#"
   xmlns:rdf="http://www.w3.org/1999/02/22-rdf-syntax-ns#"
   xmlns:svg="http://www.w3.org/2000/svg"
   xmlns="http://www.w3.org/2000/svg"
   xmlns:sodipodi="http://sodipodi.sourceforge.net/DTD/sodipodi-0.dtd"
   xmlns:inkscape="http://www.inkscape.org/namespaces/inkscape"
   width="22"
   height="22"
   id="svg3760"
   version="1.1"
   inkscape:version="0.48+devel r"
   sodipodi:docname="office-chart-line-percentage.svg">
  <defs
     id="defs3762" />
  <sodipodi:namedview
     id="base"
     pagecolor="#ffffff"
     bordercolor="#666666"
     borderopacity="1.0"
     inkscape:pageopacity="0.0"
     inkscape:pageshadow="2"
     inkscape:zoom="22.98097"
     inkscape:cx="9.0101519"
     inkscape:cy="10.410721"
     inkscape:document-units="px"
     inkscape:current-layer="layer1"
     showgrid="true"
     fit-margin-top="0"
     fit-margin-left="0"
     fit-margin-right="0"
     fit-margin-bottom="0"
     inkscape:window-width="1366"
     inkscape:window-height="666"
     inkscape:window-x="-2"
     inkscape:window-y="25"
     inkscape:window-maximized="1"
     inkscape:showpageshadow="false"
     showguides="true">
    <inkscape:grid
       type="xygrid"
       id="grid4106"
       originx="-0.99998557px"
       originy="-1.0000252px" />
    <sodipodi:guide
       position="2.00001,19.99997"
       orientation="0,18"
       id="guide4229" />
    <sodipodi:guide
       position="20.00001,19.99997"
       orientation="18,0"
       id="guide4231" />
    <sodipodi:guide
       position="20.00001,1.99997"
       orientation="0,-18"
       id="guide4233" />
    <sodipodi:guide
       position="2.00001,1.99997"
       orientation="-18,0"
       id="guide4235" />
    <sodipodi:guide
       position="3.00001,18.99997"
       orientation="0,16"
       id="guide4237" />
    <sodipodi:guide
       position="19.00001,18.99997"
       orientation="16,0"
       id="guide4239" />
    <sodipodi:guide
       position="19.00001,2.99997"
       orientation="0,-16"
       id="guide4241" />
    <sodipodi:guide
       position="3.00001,2.99997"
       orientation="-16,0"
       id="guide4243" />
    <sodipodi:guide
       position="9.3000344,11.707075"
       orientation="0.70710678,0.70710678"
       id="guide4185" />
    <sodipodi:guide
       position="19.199543,20.19237"
       orientation="-0.70710678,-0.70710678"
       id="guide4189" />
    <sodipodi:guide
       position="8.7999448,20.192472"
       orientation="-0.70710678,0.70710678"
       id="guide4193" />
    <sodipodi:guide
       position="18.69944,11.707191"
       orientation="0.70710678,-0.70710678"
       id="guide4197" />
  </sodipodi:namedview>
  <metadata
     id="metadata3765">
    <rdf:RDF>
      <cc:Work
         rdf:about="">
        <dc:format>image/svg+xml</dc:format>
        <dc:type
           rdf:resource="http://purl.org/dc/dcmitype/StillImage" />
        <dc:title />
      </cc:Work>
    </rdf:RDF>
  </metadata>
  <g
     inkscape:label="Capa 1"
     inkscape:groupmode="layer"
     id="layer1"
     transform="translate(-551.28571,-607.64788)">
    <path
       style="opacity:1;fill:#4d4d4d;fill-opacity:1;stroke:none;stroke-width:2.79999995;stroke-miterlimit:4;stroke-dasharray:none;stroke-opacity:0.55026455"
       d="M 4 3 L 4 6.9921875 L 4 8 L 4 15 L 4 16 L 4 17 L 3 17 L 3 18 L 4 18 L 4 19 L 5 19 L 5 18 L 19 18 L 19 17 L 5 17 L 5 16 L 5.0078125 16 L 6 16 L 8 16 L 8 15.992188 L 8.0078125 16 L 10.007812 14 L 11.599609 14 L 13.599609 16 L 17.099609 16 L 19 16 L 19 15 L 17.099609 15 L 14.013672 15 L 12.013672 13 L 12 13 L 11.007812 13 L 10.599609 13 L 9.59375 13 L 7.59375 15 L 6 15 L 5.0078125 15 L 5 15 L 5 12 L 5 11 L 5 10 L 5 8 L 5.0078125 8 L 6 8 L 7.5878906 8 L 9.2949219 9.7070312 L 10.123047 10.535156 L 12.123047 12.535156 L 12.125 12.533203 L 12.126953 12.535156 L 14.253906 10.410156 L 15.550781 11.707031 L 16.378906 12.535156 L 17.419922 13.576172 L 18.126953 12.869141 L 17.085938 11.828125 L 16.257812 11 L 14.257812 9 L 14.253906 9.0039062 L 14.248047 9 L 12.125 11.123047 L 10.830078 9.828125 L 10.001953 9 L 8.0019531 7 L 8 7 L 6 7 L 6 6.9921875 L 5 6.9921875 L 5 6 L 12 6 L 12 5 L 5 5 L 5 3 L 4 3 z M 14.208984 3 C 13.661814 3 13.478516 3.4854475 13.478516 3.9921875 C 13.478516 4.4962375 13.659124 4.9726562 14.208984 4.9726562 C 14.758854 4.9726562 14.935547 4.4962375 14.935547 3.9921875 C 14.935547 3.4881475 14.756154 3 14.208984 3 z M 15.914062 3 C 15.366893 3 15.183594 3.4854475 15.183594 3.9921875 C 15.183594 4.4962375 15.364193 4.9726562 15.914062 4.9726562 C 16.463923 4.9726562 16.642578 4.4962375 16.642578 3.9921875 C 16.642578 3.4881475 16.461233 3 15.914062 3 z M 17.289062 3.0351562 C 16.989863 3.0351562 16.814453 3.2655306 16.814453 3.5566406 C 16.814453 3.8477406 16.981313 4.078125 17.283203 4.078125 C 17.587783 4.078125 17.779297 3.8430975 17.779297 3.5546875 L 17.779297 3.5527344 C 17.779297 3.2616244 17.604422 3.0351563 17.289062 3.0351562 z M 18.339844 3.0371094 C 18.339844 3.0371094 18.338932 3.0409687 18.335938 3.0429688 L 17.123047 5 L 17.427734 5 L 18.638672 3.0488281 C 18.641672 3.0458281 18.640578 3.0429084 18.642578 3.0371094 L 18.339844 3.0371094 z M 12.882812 3.0410156 L 12.494141 3.2441406 L 12.494141 3.5253906 L 12.832031 3.3789062 L 12.832031 4.9453125 L 13.197266 4.9453125 L 13.197266 3.0410156 L 12.882812 3.0410156 z M 17.289062 3.2617188 C 17.440002 3.2617188 17.503906 3.3848775 17.503906 3.5546875 C 17.503906 3.7218075 17.436086 3.8496094 17.285156 3.8496094 C 17.134216 3.8496094 17.072266 3.7284037 17.072266 3.5585938 C 17.072266 3.3887837 17.138126 3.2617188 17.289062 3.2617188 z M 14.208984 3.3105469 C 14.497394 3.3105469 14.544922 3.6516286 14.544922 3.9804688 C 14.544922 4.3120088 14.497412 4.6679688 14.208984 4.6679688 C 13.917884 4.6679688 13.871094 4.3146987 13.871094 3.9804688 L 13.871094 3.9726562 L 13.869141 3.9726562 C 13.872141 3.6492064 13.920561 3.3105469 14.208984 3.3105469 z M 15.914062 3.3105469 C 16.202472 3.3105469 16.25 3.6516286 16.25 3.9804688 C 16.25 4.3120088 16.202491 4.6679688 15.914062 4.6679688 C 15.622953 4.6679688 15.578125 4.3146987 15.578125 3.9804688 L 15.578125 3.9726562 L 15.574219 3.9726562 C 15.577219 3.6492064 15.62564 3.3105469 15.914062 3.3105469 z M 18.511719 3.9335938 C 18.220609 3.9335938 18.029297 4.1045213 18.029297 4.3632812 C 18.029297 4.3929813 18.032109 4.423425 18.037109 4.453125 L 18.037109 4.4550781 C 18.037109 4.7407981 18.215421 4.9667969 18.525391 4.9667969 C 18.821903 4.9667995 19 4.7329756 19 4.4472656 C 19 4.1561556 18.837859 3.9335938 18.511719 3.9335938 z M 18.509766 4.1582031 C 18.676886 4.1582031 18.742188 4.2801456 18.742188 4.4472656 C 18.742188 4.6143756 18.682198 4.7402344 18.53125 4.7402344 C 18.38031 4.7402344 18.314453 4.6221981 18.314453 4.4550781 C 18.314453 4.2879681 18.339993 4.1582031 18.509766 4.1582031 z "
       transform="translate(551.28571,607.64788)"
       id="rect4144" />
  </g>
</svg>

<?xml version="1.0" encoding="UTF-8" standalone="no"?>
<!-- Created with Inkscape (http://www.inkscape.org/) -->

<svg
   xmlns:dc="http://purl.org/dc/elements/1.1/"
   xmlns:cc="http://creativecommons.org/ns#"
   xmlns:rdf="http://www.w3.org/1999/02/22-rdf-syntax-ns#"
   xmlns:svg="http://www.w3.org/2000/svg"
   xmlns="http://www.w3.org/2000/svg"
   xmlns:sodipodi="http://sodipodi.sourceforge.net/DTD/sodipodi-0.dtd"
   xmlns:inkscape="http://www.inkscape.org/namespaces/inkscape"
   width="22"
   height="22"
   id="svg3760"
   version="1.1"
   inkscape:version="0.91+devel r"
   sodipodi:docname="office-chart-line-percentage.svg">
  <defs
     id="defs3762" />
  <sodipodi:namedview
     id="base"
     pagecolor="#ffffff"
     bordercolor="#666666"
     borderopacity="1.0"
     inkscape:pageopacity="0.0"
     inkscape:pageshadow="2"
     inkscape:zoom="22.98097"
     inkscape:cx="13.970778"
     inkscape:cy="12.064263"
     inkscape:document-units="px"
     inkscape:current-layer="layer1"
     showgrid="true"
     fit-margin-top="0"
     fit-margin-left="0"
     fit-margin-right="0"
     fit-margin-bottom="0"
     inkscape:window-width="1366"
     inkscape:window-height="658"
     inkscape:window-x="-4"
     inkscape:window-y="29"
     inkscape:window-maximized="1"
     inkscape:showpageshadow="false"
     showguides="true">
    <inkscape:grid
       type="xygrid"
       id="grid4106"
       originx="-0.99998557px"
       originy="-1.0000252px" />
    <sodipodi:guide
       position="2.00001,19.99997"
       orientation="0,18"
       id="guide4229" />
    <sodipodi:guide
       position="20.00001,19.99997"
       orientation="18,0"
       id="guide4231" />
    <sodipodi:guide
       position="20.00001,1.99997"
       orientation="0,-18"
       id="guide4233" />
    <sodipodi:guide
       position="2.00001,1.99997"
       orientation="-18,0"
       id="guide4235" />
    <sodipodi:guide
       position="3.00001,18.99997"
       orientation="0,16"
       id="guide4237" />
    <sodipodi:guide
       position="19.00001,18.99997"
       orientation="16,0"
       id="guide4239" />
    <sodipodi:guide
       position="19.00001,2.99997"
       orientation="0,-16"
       id="guide4241" />
    <sodipodi:guide
       position="3.00001,2.99997"
       orientation="-16,0"
       id="guide4243" />
    <sodipodi:guide
       position="9.3000344,11.707075"
       orientation="0.70710678,0.70710678"
       id="guide4185" />
    <sodipodi:guide
       position="19.199543,20.19237"
       orientation="-0.70710678,-0.70710678"
       id="guide4189" />
    <sodipodi:guide
       position="8.7999448,20.192472"
       orientation="-0.70710678,0.70710678"
       id="guide4193" />
    <sodipodi:guide
       position="18.69944,11.707191"
       orientation="0.70710678,-0.70710678"
       id="guide4197" />
  </sodipodi:namedview>
  <metadata
     id="metadata3765">
    <rdf:RDF>
      <cc:Work
         rdf:about="">
        <dc:format>image/svg+xml</dc:format>
        <dc:type
           rdf:resource="http://purl.org/dc/dcmitype/StillImage" />
        <dc:title />
      </cc:Work>
    </rdf:RDF>
  </metadata>
  <g
     inkscape:label="Capa 1"
     inkscape:groupmode="layer"
     id="layer1"
     transform="translate(-551.28571,-607.64788)">
    <path
       style="opacity:1;fill:#4d4d4d;fill-opacity:1;stroke:none;stroke-width:2.79999995;stroke-miterlimit:4;stroke-dasharray:none;stroke-opacity:0.55026455"
       d="M 4,3 4,6.9921875 4,8 l 0,7 0,1 0,1 -1,0 0,1 1,0 0,1 1,0 0,-1 14,0 0,-1 -14,0 0,-1 0.00781,0 L 6,16 l 2,0 0,-0.0078 0.00781,0.0078 1.9999995,-2 1.591797,0 2,2 3.5,0 L 19,16 l 0,-1 -1.900391,0 -3.085937,0 -2,-2 L 12,13 l -0.992188,0 -0.408203,0 -1.005859,0 -2,2 L 6,15 5.0078125,15 5,15 5,12 5,11 5,10 5,8 5.0078125,8 6,8 l 1.5878906,0 1.7070313,1.7070312 0.8281251,0.8281248 2,2 0.002,-0.002 0.002,0.002 2.126953,-2.125 1.296875,1.296875 0.828125,0.828125 1.041016,1.041016 0.707031,-0.707031 L 17.085938,11.828125 16.257812,11 l -2,-2 -0.0039,0.00391 L 14.248047,9 12.125,11.123047 10.830078,9.828125 10.001953,9 8.0019531,7 8,7 6,7 l 0,-0.00781 -1,0 L 5,6 12,6 12,5 5,5 5,3 Z"
       transform="translate(551.28571,607.64788)"
       id="rect4144"
       inkscape:connector-curvature="0"
       sodipodi:nodetypes="cccccccccccccccccccccccccccccccccccccccccccccccccccccccccccccccccccccccccc" />
    <path
       inkscape:connector-curvature="0"
       style="fill:#4d4d4d;fill-opacity:1;stroke:none"
       d="m 563.28571,610.64788 0,1 1,0 0,3 1,0 0,-4 -1,0 -1,0 z m 4.5,0 c -0.831,0 -1.5,0.669 -1.5,1.5 l 0,1 c 0,0.831 0.669,1.5 1.5,1.5 0.831,0 1.5,-0.669 1.5,-1.5 l 0,-1 c 0,-0.831 -0.669,-1.5 -1.5,-1.5 z m 4,0 c -0.831,0 -1.5,0.669 -1.5,1.5 l 0,1 c 0,0.831 0.669,1.5 1.5,1.5 0.831,0 1.5,-0.669 1.5,-1.5 l 0,-1 c 0,-0.831 -0.669,-1.5 -1.5,-1.5 z m -4,1 c 0.277,0 0.5,0.223 0.5,0.5 l 0,1 c 0,0.277 -0.223,0.5 -0.5,0.5 -0.277,0 -0.5,-0.223 -0.5,-0.5 l 0,-1 c 0,-0.277 0.223,-0.5 0.5,-0.5 z m 4,0 c 0.277,0 0.5,0.223 0.5,0.5 l 0,1 c 0,0.277 -0.223,0.5 -0.5,0.5 -0.277,0 -0.5,-0.223 -0.5,-0.5 l 0,-1 c 0,-0.277 0.223,-0.5 0.5,-0.5 z"
       id="rect3374" />
  </g>
</svg>
